X:1
T:Premiere Babiole
T:Quatriéme Babiole
T:Jacques-Christophe Naudot (ca. 1690 –1762)
C:Naudot
%%score { 1 | 2 }
L:1/8
Q:1/4=120
M:3/4
K:G
V:1 treble nm="Piano" snm="Pno."
V:2 treble 
V:1
"_Gracieusement" B3 c !plus!A2{GA} | Bc (!plus!c3 B/c/) | d2 cBAG | F3 A Bc | dD D2 de | %5
 !plus!cD D2 cd | BD !plus!D2 Bc | !plus!A6 | dA A2 df | eA !plus!A2 eg | fgfefd | ^cdedce | %12
 dA !plus!A2 df | eA !plus!A2 eg | fB !plus!^c3 d | d6 :| z6 | z6 | d3 d gB | cA d3 c | BdgdBg | %21
 e=fedcB | A2 (!plus!A3 G/A/) | BG e3 e | !plus!e2 dadd | !plus!d2 cacc | !plus!c2 BgBB | %27
 !plus!B2 AfAA | !plus!A2 GAGA | !plus!F2{E} Dd (3(ABc) | (3(Bcd) !plus!c3 B | A4 D=F | %32
 E=FEF(E^F/G/) | FGFG(FG/A/) | GA A3 G | GBeGAG | FAdFGF | EGcEFE | DB A3 G | !plus!G3 B cB | %40
 AGFABA | GFEGAG | FG !plus!F3 G | G6 :| %44
[M:2/4][Q:1/4=120]"_Vivement"[Q:1/4=80]"^1. Villageoise" de | d2 gf/e/ | d2 gf/e/ | dc/B/ cd | %48
 BG de | d2 gf/e/ | d2 gf/e/ | fd E^c | d2 :: AB | AB cB/A/ | BG de | de =fe/d/ | ec ed/c/ | %58
 d2 cB/A/ | BG dc/B/ | e/d/c/B/ !plus!A>G | G2 :|[K:F][M:2/4][Q:1/4=80]"^2. Villageoise" BA/G/ | %63
 _ed cB/A/ | BG BA/G/ | _e>d c/B/A/G/ | !plus!^F{E}D BA/G/ | _ed cB/A/ | BG BA/G/ | %69
 Ad/F/ !plus!E>D | D2 :: d_e/c/ | dB f_e/d/ | !plus!c2 FG/A/ | B_e/d/ !plus!c>B | B2 dc/B/ | %76
 cA cB/A/ | BG d_e/c/ | dc/B/ A>G | G2 :|[K:G][M:6/8][Q:1/4=120]"^Musette en Rondeau" d2 F({EF)} | %81
 GDG A/B/cd | !plus!B2 A d2 F | GDG c!plus!B>c | A3 d2 !plus!F({EF)} | G/F/G/D/G/B/ A/G/A/B/c/d/ | %86
 !plus!B2 A A/B/cB |{B} A{G}FG c/B<!plus!AG/ | G3 :| d2 e | dgf edc | !plus!B2{A} G d2 e | %92
 dgf efg | !plus!^c>BA aA/B/=c | B/A/Bd gG/A/B | A/G/A^c fF/G/A | G/F/AB eE/F/G | %97
 !plus!F2 D a/g/a/A/B/=c/ | B/A/B/d/e/f/ g/f/g/G/A/B/ | A/G/A/^c/d/e/ f/e/f/F/G/A/ | %100
 G/F/G/A/F (3B/^c/d/!plus!c>d | dDd/e/ !plus!c/B/c/d/B/c/ | !plus!A/G/Ad/e/ !plus!c/B/c/d/B/c/ | %103
 !plus!A3 d2 F({EF)} | GDG A/B/cd | B2 A d2 F({EF)} | GDG cB>c | A3 d2 F{EF} | %108
 G/F/G/D/G/B/ A/G/A/B/c/d/ | !plus!B2 A A/B/cB |{B} A{G}FG c/B<!plus!AG/ | G3 |] %112
[K:G][M:6/8][Q:1/4=120]"^Fanfare" G | BcB ABc | BAB G2 B | ded cde | dcd B2 d | cdc BcB | ABc Bcd | %119
 cdc BcB | !plus!A3- A2 :: d | ded cde | !plus!d3 B2 d | ded cde | !plus!d3 B2 d | cdc BcB | %127
 A2 A A2 d | cdc BcB | !plus!A3- A2 D | GDG GDG | ADA ADA | BGB BGB | cAc cAc | d3- dgd | d3- dgd | %136
 dcB !plus!A2 G | G3- G2 :|[K:G][M:4/4][Q:1/4=120]"^Musette" BABG | dcdB edce | dedc BABc | %141
 d2 G2 c2 B2 | A4 BABG | dcdB edce | dgfe decd | BABc A3 G | G4 :| dGFG | e2 d2 dGFG | c2 B2 dGFG | %150
 e2 d2 cBAG | FGFG ABAB | ^cdcd efge | f2 ef g2 f2 | e2 d2 e2 ^c2 | d2 AB =cBcd | B2 AG AGAF | %157
 G2 AB cBcd | B2 d2 cBAG | A4 BABG | dcdB edce | dedc BABc | d2 G2 c2 B2 | A4 BABG | dcdB edce | %165
 dgfe decd | BABc A3 G | G4 |][M:3/8][Q:1/4=120]"^1. Rondeau" B | B/A/Ac | c/B/Bd- | dc/B/A/G/ | %172
 FDB | B/A/Ac | c/B/Bd | c/B<AG/ | G2 :| d | ede/f/ | gdg | f/e/d/c/B/A/ | BGd | ede/f/ | gdg | %184
 fe/d/e/^c/ | dA/B/=c | cB/c/d | dc/B/A/G/ | F/G<GF/4G/4 | ADB | B/A/Ac | c/B/Bd- | dc/B/A/G/ | %193
 FDB | B/A/Ac | c/B/Bd | c/B<AG/ | G2 z |][K:F][M:3/8][Q:1/4=120]"^2. Rondeau" d/c/ | B/A/G_e/d/ | %200
 cAd | c/B/A/B/G/A/ | ^FDd/c/ | B/A/G_e/d/ | cAd | c/B<AG/ | G2 :| B | c/B/A/B/c/A/ | BGd | %210
 _e/d/c/d/e/c/ | dBf | fB_e | cAB | cc>B | B2 d | dc/B/A/G/ | ^FDd/c/ | B/c<cB/4c/4 | d2 d/c/ | %220
 B/A/G_e/d/ | cAd | c/B/A/B/G/A/ | ^FDd/c/ | B/A/G_e/d/ | cAd | c/B<AG/ | G2 |] %228
[K:G][M:3/4][Q:1/4=120]"^1. Menuet" d2 cBAG | e2 d2 z2 | g2 fedc | B4 A2 | d2 cBAG | edcBAG | %234
 FG G3 F/G/ | A6 :: A2 BABG | A2 dcdB | c2 B3 c | AG A2 z2 | A2 BABG | A2 dcdB | c2 A3 G | G6 :| %244
[K:F][M:3/4][Q:1/4=120]"^2. Menuet" GABc dG | _e2 d2 z2 | g2 ^fedc | B4 A2 | GABcdG | _e2 d2 c2 | %250
 Bc c3 B/c/ | d6 :: dcd_ecd | _edefed | cBcdBc | dcd_edc | BABcAB | c2 BA B2 | c2 A3 G | G6 :| %260
V:2
 G3 A !plus!F2{EF} | GA (!plus!A3 G/A/) | Bc (!plus!c3 B/c/) | dD EFGA | BcBcBc | ABABAB | GAGAGA | %7
 FdcBAG | F2 fefd | ^cd ed ce | dA !plus!A2 df | eA !plus!A2 eg | fgfefd | ^cdedce | %14
 dG !plus!E3 D | D6 :| A3 A dF | GE A3 G | FG !plus!G3 F/G/ | (3(ABc) (!plus!F3 E/F/) | G2 B2 G2 | %21
 cdcBAG | FAdAFd | G2 gaga | f2 FGFG | E2 efef | dedede | cdcdcd | BcBcBc | AGFGAF | %30
 (3(GAB) !plus!A3 G | !plus!F2{E} D2 d2 | d2 c3 c | c3 B (3(ABc) | Bc !plus!F3 G | G3 B cB | %36
 AGFABA | GFEGAG | FG F3 G | GBeGAG | FAdFGF | EGcEFE | DB !plus!A3 G | G6 :|[M:2/4] Bc | %45
 B/A/G/A/ Bc | B/A/G/A/ Bc | BA/G/ AF | GD Bc | B/A/G/A/ Bc | B/A/G/A/ B^c | dF GA | D2 :: FG | %54
 FG AG/F/ | GD Bc | Bc dc/B/ | ce/d/ cB/A/ | BG AG/F/ | Gd/c/ BA/G/ | c/B/A/G/ !plus!F>G | G2 :| %62
[K:F][M:2/4] GA/B/ | cB AG/^F/ | GD GA/B/ | c>d _e/d/c/B/ | !plus!A2 GA/B/ | cB AG/^F/ | %68
 GD G=F/E/ | F/E/F/d/ !plus!^c>d | d2 :: Bc/A/ | BF dc/B/ | Ff/_e/ d/c/B/A/ | GA/B/ !plus!A>B | %75
 Bd/c/ BA/G/ | Ac/B/ AG/^F/ | GD Bc/A/ | BA/G/ !plus!^F>G | G2 :|[K:G][M:6/8] B2 A | BAG F/G/AF | %82
 G2 D B2 A | BAG F G2 | Dd/c/B/A/ B2 !plus!A({GA)} | B/A/BG F/E/F/D/E/F/ | G2 D/E/ F/G/AG | %87
{G} F{!plus!E}DB A/G<!plus!FG/ | G3 :| B2 c | B2 A cBA | G2 D B2 c | B2 A GAB | Aag f/e/f/d/e/f/ | %94
 g/f/gf e/d/e/^c/d/e/ | f/e/fe d/^c/d/B/c/d/ | e/d/ed ^c/B/c/A/B/c/ | dag f !plus!f2({ef)} | %98
 g/f/g/a/g/f/ e !plus!e2({de)} | f/e/f/g/f/e/ d !plus!d2({^cd)} | e^cd G/F<!plus!ED/ | %101
 D3 z z d/e/ | c/B/c/d/B/c/ A/G/A/B/G/A/ | !plus!F2{E} D B2 A({GA)} | BAG F/G/AF | %105
 G2 D B2 !plus!A({GA)} | BAG F G2 | Dd/c/B/A/ B2 A{GA} | B/A/BG F/E/F/D/E/F/ | G2 D/E/ F/G/AG | %110
{G} F{!plus!E}DB A/G<!plus!FG/ | G3 |][K:G][M:6/8] z | z6 | z4 z G | BcB ABc | BAB G2 B | ABA GAG | %118
 !plus!F2 D GAB | ABA GAG | !plus!F3 D2 :: B | BcB ABc | !plus!B3 G2 B | BcB ABc | !plus!B3 G2 B | %126
 ABA GAG | F2 D D2 B | ABA GAG | !plus!D3- D2 z | z6 | z4 z D | GDG GDG | ADA ADA | BGB BGB | %135
 BGB BGB | BAG !plus!F2 G | G3- G2 :|[K:G][M:4/4] z4 | BABG cBAc | BcBA GFGA | B2 cB A2 G2 | %142
 F2 D2 z4 | BABG cBAc | B2 AG FGAF | GFGA F3 G | G4 :| GBAB | c2 B2 B2 AG | F2 G2 GBAB | %150
 c2 B2 AGFE | D4 FGFG | ABAB ^cABc | d2 ^cd e2 d2 | G2 F2 G2 A2 | DEFG AGAF | G2 AB cBcd | %157
 B2 cB AGAF | G2 B2 AGFE | F2 D2 z4 | BABG cBAc | BcBA GFGA | B2 cB A2 G2 | F2 D2 z4 | BABG cBAc | %165
 B2 AG FGAF | GFGA F3 G | G4 |][M:3/8]"^Gracieusement" G | G/F/FA | A/G/GB | c/d/e/d/c/B/ | A2 G | %173
 G/F/FA | A/G/GB | A/G<FG/ | G2 :| B | cBc/A/ | B/A/BG | d/c/B/A/G/F/ | GDB | cBc/A/ | B/A/B^c | %184
 dG/F/G/E/ | F/E/F/G/A | DG/A/B | EFG | D G2 | F2 G | G/F/FA | A/G/GB | c/d/e/d/c/B/ | A2 G | %194
 G/F/FA | A/G/GB | A/G<FG/ | G2 z |][K:F][M:3/8] B/A/ | G/A/B/G/c/B/ | A^FB | _e/d/c/d/B/c/ | %202
 Ad/c/B/A/ | G/A/B/G/c/B/ | A^FB | A/G<^FG/ | G2 :| z | z3 | BBB | c/B/A/B/c/A/ | B2 d | G2 c | %213
 AFG | _E F2 | B/A/G/A/B/G/ | c/d/_e/d/c/B/ | Ad/c/B/A/ | G/A<AG/ | FDB/A/ | G/A/B/G/c/B/ | A^FB | %222
 _e/d/c/d/B/c/ | Ad/c/B/A/ | G/A/B/G/c/B/ | A^FB | A/G<^FG/ | G2 |][K:G][M:3/4] G2 A2 B2 | %229
 c2 B2 z2 | B2 AcBA | G4 D2 | G2 A2 B2 | cdedcB | A2 G4 | F4 D2 :: F2 GFGE | F2 BABG | AF G3 A | %239
 FE F2 z2 | F2 GFGE | F2 BABG | A2 F3 G | G6 :|[K:F][M:3/4] G^FGA B2 | c2 B2 z2 | B2 AcBA | G4 D2 | %248
 G^F GA B2 | c2 B2 A2 | GA A3 G | ^F3 E D2 :: BABcAB | cBcdcB | AGABGA | BABcBA | G^FGAFG | %257
 A2 G^F G2 | A2 ^F3 G | G6 :| %260

